originals/matic.svg

<svg width="485" height="382" viewBox="0 0 485 382" fill="none" xmlns="http://www.w3.org/2000/svg">
<path fill-rule="evenodd" clip-rule="evenodd" d="M187.763 158.848L241.91 278.932L322.5 232.475L322.561 232.451V139.464L187.763 158.848Z" fill="#2BBDF7"/>
<path fill-rule="evenodd" clip-rule="evenodd" d="M426.827 69.745L376.525 50.7983L322.766 46.4558V335.423L403.416 381.905L467.073 251.631L426.924 125.663L426.827 69.745Z" fill="#2891F9"/>
<path fill-rule="evenodd" clip-rule="evenodd" d="M421.773 46.5527L403.093 93.0219H403.069V381.953L483.732 335.484V46.5527H421.773Z" fill="#2BBDF7"/>
<path fill-rule="evenodd" clip-rule="evenodd" d="M403.428 0L322.766 46.5055L403.428 92.999L484.091 46.5055L403.428 0Z" fill="#2B6DEF"/>
<path fill-rule="evenodd" clip-rule="evenodd" d="M241.965 185.924V185.9L161.314 95.6542L0 46.4558V335.387L80.6387 381.88L103.685 221.986L161.314 232.454V232.405L241.977 278.886V185.924H241.965Z" fill="#2891F9"/>
<path fill-rule="evenodd" clip-rule="evenodd" d="M80.6872 0L0 46.4934L241.94 186.01L278.5 164.941L322.591 139.505L80.6872 0Z" fill="#2B6DEF"/>
<path fill-rule="evenodd" clip-rule="evenodd" d="M80.7035 185.92H80.6914V381.864L161.354 335.383V232.413L80.7035 185.92Z" fill="#2BBDF7"/>
</svg>

<svg xmlns="http://www.w3.org/2000/svg" width="485" height="382" fill="none" viewBox="0 0 485 382"><path fill="#2BBDF7" fill-rule="evenodd" d="m187.763 158.848 54.147 120.084 80.59-46.457.061-.024v-92.987z" clip-rule="evenodd"/><path fill="#2891F9" fill-rule="evenodd" d="m426.827 69.745-50.302-18.947-53.759-4.342v288.967l80.65 46.482 63.657-130.274-40.149-125.968z" clip-rule="evenodd"/><path fill="#2BBDF7" fill-rule="evenodd" d="m421.773 46.553-18.68 46.469h-.024v288.931l80.663-46.469V46.553z" clip-rule="evenodd"/><path fill="#2B6DEF" fill-rule="evenodd" d="m403.428 0-80.662 46.506 80.662 46.493 80.663-46.493z" clip-rule="evenodd"/><path fill="#2891F9" fill-rule="evenodd" d="M241.965 185.924v-.024l-80.651-90.246L0 46.456v288.931l80.639 46.493 23.046-159.894 57.629 10.468v-.049l80.663 46.481v-92.962z" clip-rule="evenodd"/><path fill="#2B6DEF" fill-rule="evenodd" d="M80.687 0 0 46.493 241.94 186.01l36.56-21.069 44.091-25.436z" clip-rule="evenodd"/><path fill="#2BBDF7" fill-rule="evenodd" d="M80.704 185.92h-.013v195.944l80.663-46.481v-102.97z" clip-rule="evenodd"/></svg>
